X:110
T: Old Brown Slipper
S: "Ag Deanamh Ceoil" (CCE)
Z: B.Black
L: 1/8
M: 9/8
R: slipjig
K: G
B3 B2A GED|B2g g2e dBA|B3 B2A GED|EGG G2A G3 :|
B2g g2e fed|B2e efe dBA|B2g g2e fed|Bee e2d e3|
e2f g2e fed|B2e efe dBA|B3 B2A GED|EGG G2A G3 ||
